images/indikatorenset/5866.svg

<?xml version="1.0" standalone="no"?><!DOCTYPE svg PUBLIC "-//W3C//DTD SVG 1.1//EN" "http://www.w3.org/Graphics/SVG/1.1/DTD/svg11.dtd"><svg xmlns:xlink="http://www.w3.org/1999/xlink" version="1.1" class="highcharts-root" style="font-family:arial;font-size:12px;" xmlns="http://www.w3.org/2000/svg" viewBox="0 0 320 208"><desc>Created with Highstock 5.0.14</desc><defs><clipPath id="highcharts-cko6jcg-6"><rect x="0" y="0" width="263" height="119" fill="none"></rect></clipPath><clipPath id="highcharts-cko6jcg-7"><rect x="0" y="0" width="263" height="119" fill="none"></rect></clipPath></defs><rect fill="#fbfbfb" class="highcharts-background" x="0" y="0" width="320" height="208" rx="0" ry="0"></rect><rect fill="none" class="highcharts-plot-background" x="54" y="60" width="263" height="119"></rect><g class="highcharts-pane-group"></g><g class="highcharts-grid highcharts-xaxis-grid "><path fill="none" class="highcharts-grid-line" d="M 97.5 60 L 97.5 179" opacity="1"></path><path fill="none" class="highcharts-grid-line" d="M 141.5 60 L 141.5 179" opacity="1"></path><path fill="none" class="highcharts-grid-line" d="M 185.5 60 L 185.5 179" opacity="1"></path><path fill="none" class="highcharts-grid-line" d="M 228.5 60 L 228.5 179" opacity="1"></path><path fill="none" class="highcharts-grid-line" d="M 272.5 60 L 272.5 179" opacity="1"></path><path fill="none" class="highcharts-grid-line" d="M 316.5 60 L 316.5 179" opacity="1"></path><path fill="none" class="highcharts-grid-line" d="M 53.5 60 L 53.5 179" opacity="1"></path></g><g class="highcharts-grid highcharts-yaxis-grid "><path fill="none" stroke="#B9CFD7" stroke-width="0.5" class="highcharts-grid-line" d="M 54 179.25 L 317 179.25" opacity="1"></path><path fill="none" stroke="#B9CFD7" stroke-width="0.5" class="highcharts-grid-line" d="M 54 120.25 L 317 120.25" opacity="1"></path><path fill="none" stroke="#B9CFD7" stroke-width="0.5" class="highcharts-grid-line" d="M 54 60.25 L 317 60.25" opacity="1"></path></g><rect fill="none" class="highcharts-plot-border" x="54" y="60" width="263" height="119"></rect><g class="highcharts-axis highcharts-xaxis "><path fill="none" class="highcharts-tick" stroke="#FFFFFF" stroke-width="1" d="M 97.5 179 L 97.5 189" opacity="1"></path><path fill="none" class="highcharts-tick" stroke="#FFFFFF" stroke-width="1" d="M 141.5 179 L 141.5 189" opacity="1"></path><path fill="none" class="highcharts-tick" stroke="#FFFFFF" stroke-width="1" d="M 185.5 179 L 185.5 189" opacity="1"></path><path fill="none" class="highcharts-tick" stroke="#FFFFFF" stroke-width="1" d="M 228.5 179 L 228.5 189" opacity="1"></path><path fill="none" class="highcharts-tick" stroke="#FFFFFF" stroke-width="1" d="M 272.5 179 L 272.5 189" opacity="1"></path><path fill="none" class="highcharts-tick" stroke="#FFFFFF" stroke-width="1" d="M 317.5 179 L 317.5 189" opacity="1"></path><path fill="none" class="highcharts-tick" stroke="#FFFFFF" stroke-width="1" d="M 53.5 179 L 53.5 189" opacity="1"></path><path fill="none" class="highcharts-axis-line" stroke="#B9CFD7" stroke-width="0.5" d="M 54 179.25 L 317 179.25"></path></g><g class="highcharts-axis highcharts-yaxis "><path fill="none" class="highcharts-axis-line" d="M 54 60 L 54 179"></path></g><g class="highcharts-series-group"><g class="highcharts-series highcharts-series-0 highcharts-column-series highcharts-color-undefined " transform="translate(54,60) scale(1 1)" clip-path="url(#highcharts-cko6jcg-7)"><rect x="14" y="29" width="15" height="31" fill="#2f656b" class="highcharts-point"></rect><rect x="58" y="26" width="15" height="31" fill="#2f656b" class="highcharts-point"></rect><rect x="102" y="25" width="15" height="33" fill="#2f656b" class="highcharts-point"></rect><rect x="146" y="24" width="15" height="34" fill="#2f656b" class="highcharts-point"></rect><rect x="190" y="21" width="15" height="35" fill="#2f656b" class="highcharts-point"></rect><rect x="234" y="20" width="15" height="36" fill="#2f656b" class="highcharts-point"></rect></g><g class="highcharts-markers highcharts-series-0 highcharts-column-series highcharts-color-undefined " transform="translate(54,60) scale(1 1)" clip-path="none"></g><g class="highcharts-series highcharts-series-1 highcharts-column-series highcharts-color-undefined " transform="translate(54,60) scale(1 1)" clip-path="url(#highcharts-cko6jcg-7)"><rect x="14" y="60" width="15" height="60" fill="#b00000" class="highcharts-point"></rect><rect x="58" y="57" width="15" height="63" fill="#b00000" class="highcharts-point"></rect><rect x="102" y="58" width="15" height="62" fill="#b00000" class="highcharts-point"></rect><rect x="146" y="58" width="15" height="62" fill="#b00000" class="highcharts-point"></rect><rect x="190" y="56" width="15" height="64" fill="#b00000" class="highcharts-point"></rect><rect x="234" y="56" width="15" height="64" fill="#b00000" class="highcharts-point"></rect></g><g class="highcharts-markers highcharts-series-1 highcharts-column-series highcharts-color-undefined " transform="translate(54,60) scale(1 1)" clip-path="none"></g></g><text x="3" text-anchor="start" class="highcharts-title" style="color:#000000;font-size:10px;font-weight:bold;fill:#000000;" y="14"><tspan>Anzahl Zupendler nach Herkunft</tspan></text><g class="highcharts-legend" transform="translate(43,7)"><rect fill="none" class="highcharts-legend-box" rx="0" ry="0" x="0" y="0" width="208" height="41" visibility="visible"></rect><g><g><g class="highcharts-legend-item highcharts-column-series highcharts-color-undefined highcharts-series-0" transform="translate(8,3)"><text x="21" style="color:#333333;font-size:10px;font-weight:normal;cursor:pointer;fill:#333333;" text-anchor="start" y="13"><tspan>Aus dem Ausland</tspan></text><rect x="3" y="4" width="10" height="10" fill="#2f656b" class="highcharts-point"></rect></g><g class="highcharts-legend-item highcharts-column-series highcharts-color-undefined highcharts-series-1" transform="translate(8,18)"><text x="21" y="13" style="color:#333333;font-size:10px;font-weight:normal;cursor:pointer;fill:#333333;" text-anchor="start"><tspan>Aus der Schweiz</tspan></text><rect x="3" y="4" width="10" height="10" fill="#b00000" class="highcharts-point"></rect></g></g></g></g><g class="highcharts-axis-labels highcharts-xaxis-labels "><text x="75.91666666666667" style="color:#000000;cursor:default;font-size:10;fill:#000000;" text-anchor="middle" transform="translate(0,0)" y="199" opacity="1">2010</text><text x="119.75000000000001" style="color:#000000;cursor:default;font-size:10;fill:#000000;" text-anchor="middle" transform="translate(0,0)" y="199" opacity="1">2011</text><text x="163.58333333333334" style="color:#000000;cursor:default;font-size:10;fill:#000000;" text-anchor="middle" transform="translate(0,0)" y="199" opacity="1">2012</text><text x="207.41666666666669" style="color:#000000;cursor:default;font-size:10;fill:#000000;" text-anchor="middle" transform="translate(0,0)" y="199" opacity="1">2013</text><text x="251.24999999999997" style="color:#000000;cursor:default;font-size:10;fill:#000000;" text-anchor="middle" transform="translate(0,0)" y="199" opacity="1">2014</text><text x="295.0833333333333" style="color:#000000;cursor:default;font-size:10;fill:#000000;" text-anchor="middle" transform="translate(0,0)" y="199" opacity="1">2015</text></g><g class="highcharts-axis-labels highcharts-yaxis-labels "><text x="39" style="color:#000000;cursor:default;font-size:10;fill:#000000;" text-anchor="end" transform="translate(0,0)" y="185" opacity="1"><tspan>0</tspan></text><text x="39" style="color:#000000;cursor:default;font-size:10;fill:#000000;" text-anchor="end" transform="translate(0,0)" y="125" opacity="1"><tspan>60 000</tspan></text><text x="39" style="color:#000000;cursor:default;font-size:10;fill:#000000;" text-anchor="end" transform="translate(0,0)" y="65" opacity="1"><tspan>120 000</tspan></text></g><text x="10" class="highcharts-credits" text-anchor="start" style="cursor:default;color:#000000;font-size:10;fill:#000000;" y="193"><tspan>Quelle: Bundesamt für Statistik (BFS), Strukturerhebung (SE)</tspan></text></svg>

<svg class="highcharts-root" xmlns="http://www.w3.org/2000/svg" viewBox="0 0 320 208" font-family="arial" font-size="12">
    <defs>
        <clipPath id="a">
            <path fill="none" d="M0 0h263v119H0z"/>
        </clipPath>
    </defs>
    <rect fill="#fbfbfb" class="highcharts-background" width="320" height="208" rx="0" ry="0"/>
    <path fill="none" class="highcharts-plot-background" d="M54 60h263v119H54z"/>
    <g class="highcharts-grid highcharts-xaxis-grid">
        <path fill="none" class="highcharts-grid-line" d="M97.5 60v119m44-119v119m44-119v119m43-119v119m44-119v119m44-119v119M53.5 60v119"/>
    </g>
    <g class="highcharts-grid highcharts-yaxis-grid">
        <path fill="none" stroke="#B9CFD7" stroke-width=".5" class="highcharts-grid-line" d="M54 179.25h263m-263-59h263m-263-60h263"/>
    </g>
    <path fill="none" class="highcharts-plot-border" d="M54 60h263v119H54z"/>
    <g class="highcharts-axis highcharts-xaxis">
        <path fill="none" class="highcharts-tick" stroke="#FFF" d="M97.5 179v10m44-10v10m44-10v10m43-10v10m44-10v10m45-10v10m-264-10v10"/>
        <path fill="none" class="highcharts-axis-line" stroke="#B9CFD7" stroke-width=".5" d="M54 179.25h263"/>
    </g>
    <g class="highcharts-axis highcharts-yaxis">
        <path fill="none" class="highcharts-axis-line" d="M54 60v119"/>
    </g>
    <g class="highcharts-series-group">
        <g class="highcharts-series highcharts-series-0 highcharts-column-series highcharts-color-undefined" transform="translate(54 60)" clip-path="url(#a)">
            <path fill="#2f656b" class="highcharts-point" d="M14 29h15v31H14zm44-3h15v31H58zm44-1h15v33h-15zm44-1h15v34h-15zm44-3h15v35h-15zm44-1h15v36h-15z"/>
        </g>
        <g class="highcharts-series highcharts-series-1 highcharts-column-series highcharts-color-undefined" transform="translate(54 60)" clip-path="url(#a)">
            <path fill="#b00000" class="highcharts-point" d="M14 60h15v60H14zm44-3h15v63H58zm44 1h15v62h-15zm44 0h15v62h-15zm44-2h15v64h-15zm44 0h15v64h-15z"/>
        </g>
    </g>
    <text x="3" class="highcharts-title" y="14" color="#000" font-size="10" font-weight="700">
        <tspan>Anzahl Zupendler nach Herkunft</tspan>
    </text>
    <g class="highcharts-legend" transform="translate(43 7)">
        <rect fill="none" class="highcharts-legend-box" rx="0" ry="0" width="208" height="41"/>
        <g class="highcharts-legend-item highcharts-column-series highcharts-color-undefined highcharts-series-0">
            <text x="21" y="13" color="#333" font-size="10" font-weight="400" cursor="pointer" fill="#333" transform="translate(8 3)">
                <tspan>Aus dem Ausland</tspan>
            </text>
            <path fill="#2f656b" class="highcharts-point" d="M11 7h10v10H11z"/>
        </g>
        <g class="highcharts-legend-item highcharts-column-series highcharts-color-undefined highcharts-series-1">
            <text x="21" y="13" color="#333" font-size="10" font-weight="400" cursor="pointer" fill="#333" transform="translate(8 18)">
                <tspan>Aus der Schweiz</tspan>
            </text>
            <path fill="#b00000" class="highcharts-point" d="M11 22h10v10H11z"/>
        </g>
    </g>
    <g class="highcharts-axis-labels highcharts-xaxis-labels" text-anchor="middle" color="#000" cursor="default" font-size="10">
        <text x="75.917" y="199">
            2010
        </text>
        <text x="119.75" y="199">
            2011
        </text>
        <text x="163.583" y="199">
            2012
        </text>
        <text x="207.417" y="199">
            2013
        </text>
        <text x="251.25" y="199">
            2014
        </text>
        <text x="295.083" y="199">
            2015
        </text>
    </g>
    <g class="highcharts-axis-labels highcharts-yaxis-labels" text-anchor="end" color="#000" cursor="default" font-size="10">
        <text x="39" y="185">
            <tspan>0</tspan>
        </text>
        <text x="39" y="125">
            <tspan>60 000</tspan>
        </text>
        <text x="39" y="65">
            <tspan>120 000</tspan>
        </text>
    </g>
    <text x="10" class="highcharts-credits" y="193" cursor="default" color="#000" font-size="10">
        <tspan>Quelle: Bundesamt für Statistik (BFS), Strukturerhebung (SE)</tspan>
    </text>
</svg>
